assets/icon-arrows.svg

<?xml version="1.0" encoding="UTF-8"?>
<!DOCTYPE svg PUBLIC "-//W3C//DTD SVG 1.1//EN" "http://www.w3.org/Graphics/SVG/1.1/DTD/svg11.dtd">
<!-- Creator: CorelDRAW 2017 -->
<svg xmlns="http://www.w3.org/2000/svg" xml:space="preserve" width="100%" height="100%" version="1.1" style="shape-rendering:geometricPrecision; text-rendering:geometricPrecision; image-rendering:optimizeQuality; fill-rule:evenodd; clip-rule:evenodd"
viewBox="0 0 1.3649 1.60774"
 xmlns:xlink="http://www.w3.org/1999/xlink">
 <defs>
  <style type="text/css">
   <![CDATA[
    .fil1 {fill:#FE4F32}
    .fil0 {fill:#FE4F32;fill-rule:nonzero}
   ]]>
  </style>
 </defs>
 <g id="Camada_x0020_1">
  <metadata id="CorelCorpID_0Corel-Layer"/>
  <g id="_1949732153488">
   <g>
    <g>
     <path class="fil0" d="M0.68254 0.29983l0 0.14191 -0.0484 0 0 -0.14191 0.0242 -0.02432 0.0242 0.02432zm-0.0242 -0.02432l0.0242 0 0 0.02432 -0.0242 -0.02432zm-0.11779 0l0.11779 0 0 0.04864 -0.11779 0 -0.01835 -0.04017 0.01835 -0.00847zm0 0.04864l-0.05268 0 0.03433 -0.04017 0.01835 0.04017zm0.24272 -0.27098l-0.22437 0.26251 -0.0367 -0.0317 0.22437 -0.26251 0.0367 0 0 0.0317zm-0.0367 -0.0317l0.01835 -0.02147 0.01835 0.02147 -0.0367 0zm0.22437 0.29421l-0.22437 -0.26251 0.0367 -0.0317 0.22437 0.26251 -0.01835 0.04017 -0.01835 -0.00847zm0.0367 -0.0317l0.03433 0.04017 -0.05268 0 0.01835 -0.04017zm-0.13613 -0.00847l0.11778 0 0 0.04864 -0.11778 0 -0.0242 -0.02432 0.0242 -0.02432zm-0.0242 0.02432l0 -0.02432 0.0242 0 -0.0242 0.02432zm0 0.34519l0 -0.34519 0.0484 0 0 0.34519 -0.0484 0z"/>
    </g>
    <g>
     <path class="fil0" d="M0.27389 0.77199l0 0.30997 -0.04868 0 0 -0.30997 0.02434 -0.02444 0.02434 0.02444zm-0.02434 -0.02444l0.02434 0 0 0.02444 -0.02434 -0.02444zm-0.1923 0l0.1923 0 0 0.04888 -0.1923 0 -0.01753 -0.0414 0.01753 -0.00748zm0 0.04888l-0.05725 0 0.03972 -0.0414 0.01753 0.0414zm0.38384 -0.38927l-0.36631 0.38179 -0.03506 -0.03392 0.36631 -0.38179 0.03506 0 0 0.03392zm-0.03506 -0.03392l0.01753 -0.01827 0.01753 0.01827 -0.03506 0zm0.3663 0.41571l-0.3663 -0.38179 0.03506 -0.03392 0.3663 0.38179 -0.01753 0.0414 -0.01753 -0.00748zm0.03506 -0.03392l0.03972 0.0414 -0.05725 0 0.01753 -0.0414zm-0.20983 -0.00748l0.1923 0 0 0.04888 -0.1923 0 -0.02434 -0.02444 0.02434 -0.02444zm-0.02434 0.02444l0 -0.02444 0.02434 0 -0.02434 0.02444zm0 0.33713l0 -0.33713 0.04868 0 0 0.33713 -0.04868 0z"/>
    </g>
    <g>
     <path class="fil0" d="M0.93315 1.03846l0 0.22881 -0.0487 0 0 -0.22881 0.02435 -0.02445 0.02435 0.02445zm-0.02435 -0.02445l0.02435 0 0 0.02445 -0.02435 -0.02445zm-0.14195 0l0.14195 0 0 0.0489 -0.14195 0 -0.01753 -0.04141 0.01753 -0.00749zm0 0.0489l-0.05726 0 0.03973 -0.04141 0.01753 0.04141zm0.28792 -0.28932l-0.27039 0.28183 -0.03506 -0.03392 0.27039 -0.28183 0.03506 0 0 0.03392zm-0.03506 -0.03392l0.01753 -0.01827 0.01753 0.01827 -0.03506 0zm0.2704 0.31575l-0.2704 -0.28183 0.03506 -0.03392 0.2704 0.28183 -0.01753 0.04141 -0.01753 -0.00749zm0.03506 -0.03392l0.03973 0.04141 -0.05726 0 0.01753 -0.04141zm-0.15948 -0.00749l0.14195 0 0 0.0489 -0.14195 0 -0.02435 -0.02445 0.02435 -0.02445zm-0.02435 0.02445l0 -0.02445 0.02435 0 -0.02435 0.02445zm0 0.35625l0 -0.35625 0.0487 0 0 0.35625 -0.0487 0z"/>
    </g>
   </g>
   <rect class="fil1" x="1.11588" y="0.17324" width="0.04219" height="0.23014"/>
   <rect class="fil1" x="1.11588" y="0.46858" width="0.04219" height="0.07288"/>
   <rect class="fil1" x="1.11588" y="0.59898" width="0.04219" height="0.07288"/>
   <rect class="fil1" x="0.4485" y="1.00172" width="0.04219" height="0.23014"/>
   <rect class="fil1" x="0.4485" y="1.29705" width="0.04219" height="0.07288"/>
   <rect class="fil1" x="0.4485" y="1.42745" width="0.04219" height="0.07288"/>
   <rect class="fil1" x="0.30659" y="1.23184" width="0.04219" height="0.23014"/>
   <rect class="fil1" x="0.30659" y="1.52718" width="0.04219" height="0.07288"/>
   <rect class="fil1" x="1.01233" y="1.23952" width="0.04219" height="0.23014"/>
   <rect class="fil1" x="1.01233" y="1.53485" width="0.04219" height="0.07288"/>
  </g>
 </g>
</svg>

<svg xmlns="http://www.w3.org/2000/svg" width="100%" height="100%" fill-rule="evenodd" clip-rule="evenodd" image-rendering="optimizeQuality" shape-rendering="geometricPrecision" text-rendering="geometricPrecision" version="1.1" viewBox="0 0 1.365 1.608" xml:space="preserve">
  <defs>
    <style type="text/css">
      .fil0,.fil1{fill:#fe4f32}.fil0{fill-rule:nonzero}
    </style>
  </defs>
  <g id="Camada_x0020_1">
    <g id="_1949732153488">
      <path d="M.683.3v.142H.634V.3L.658.276.683.3zM.658.276h.025V.3L.658.276zm-.117 0h.117v.048H.541L.522.284.541.276zm0 .048H.488l.034-.04.019.04zm.242-.27L.56.315.522.284.747.021h.036v.032zM.747.02L.765 0l.018.021H.747zM.97.316L.747.053.783.021l.225.263-.019.04L.971.316zm.037-.032l.034.04H.989l.019-.04zM.872.276h.117v.048H.872L.847.3.872.276zM.847.3V.276h.025L.847.3zm0 .345V.3h.049v.345H.847zM.274.772v.31H.225v-.31L.25.748l.024.024zM.25.748h.024v.024L.25.748zm-.193 0H.25v.048H.057L.04.755.057.748zm0 .048H0L.04.755l.017.041zM.441.407L.075.79.04.755.406.373h.035v.034zM.406.373L.424.355.44.373H.406zM.772.79L.406.407.441.373l.366.382L.79.796.772.79zM.807.755l.04.041H.79L.807.755zM.597.748H.79v.048H.598L.573.772.598.748zM.574.772V.748h.025L.573.772zm0 .337V.772h.049v.337H.573zM.933 1.038v.23H.884v-.23l.025-.024.024.024zM.91 1.014h.024v.024L.91 1.014zm-.142 0h.142v.049H.767L.749 1.02l.018-.007zm0 .049H.71l.04-.042.017.042zm.288-.29l-.27.282-.036-.034.27-.281h.036v.034zM1.02.74L1.037.72l.018.019H1.02zm.27.315L1.02.774 1.055.74l.27.281-.017.042-.018-.008zm.035-.034l.04.042h-.057l.017-.042zm-.16-.007h.143v.049h-.142l-.025-.025.025-.024zm-.024.024v-.024h.025l-.025.024zm0 .357v-.357h.049v.357h-.049z" class="fil0"/>
      <path d="M1.116.173h.042v.23h-.042zM1.116.469h.042v.073h-.042zM1.116.599h.042v.073h-.042zM.449 1.002h.042v.23H.449zM.449 1.297h.042v.073H.449zM.449 1.427h.042V1.5H.449zM.307 1.232h.042v.23H.307zM.307 1.527h.042V1.6H.307zM1.012 1.24h.042v.23h-.042zM1.012 1.535h.042v.073h-.042z" class="fil1"/>
    </g>
  </g>
</svg>
